!!!OTL: IM DOERFCHEN WO ICH LEBTE
!!!ARE: Europa, Mitteleuropa, Deutschland
!!!SCT: B0434
!!!YEM: Copyright 1995, estate of Helmut Schaffrath.
**kern
*ICvox
*Ivox
*M3/4
*k[f#]
*G:
{4d
=1
8.b
16b
4b
8cc
8f#
=2
8a
8g
4g}
{4g
=3
8.cc
16dd
4.ee
8ee
=4
8ee
8a
8a
8a
8.dd
16cc
=5
4b
4r}
{4g
=6
4.ee
8ff#
16gg
16ff#
16ee
16dd#
=7
4ee
4r}
{4ee
=8
4.ee
8dd
8cc
8b
=9
4a
8r}
{8ee
8.dd
16cc
=10
4b
4cc
4f#
=11
4g
8r}
{8g
8g
8g
=12
4ee
4r
4f#
=13
4g
4r}
==
!!!AGN: Liebes - Lied, Liebes - Lust
!!!ONB: ESAC (Essen Associative Code) Database: BOEHME
!!!AMT: simple triple
!!!AIN: vox
!!!EED: Helmut Schaffrath
!!!EEV: 1.0
*-
